icons/inspector.svg

<svg width="16" height="16" version="1.1" viewBox="0 0 16 16" xmlns="http://www.w3.org/2000/svg">
 <path d="m7.9062 1a7 7 0 0 0-6.9062 7 7 7 0 0 0 7 7 7 7 0 0 0 7-7 7 7 0 0 0-7-7 7 7 0 0 0-0.09375 0zm0.09375 2a1 1 0 0 1 1 1 1 1 0 0 1-1 1 1 1 0 0 1-1-1 1 1 0 0 1 1-1zm-1 3h2v7h-2v-7z" fill="#fff" stroke-linecap="square" stroke-width="2" style="paint-order:stroke fill markers"/>
</svg>

<svg width="16" height="16"><path d="M7.906 1A7 7 0 001 8a7 7 0 007 7 7 7 0 007-7A7 7 0 008 1a7 7 0 00-.094 0M8 3a1 1 0 011 1A1 1 0 018 5 1 1 0 017 4a1 1 0 011-1M7 6h2v7H7V6" fill="#fff"/></svg>
